img/culture/reliability.svg

<svg height="102" viewBox="0 0 56 102" width="56" xmlns="http://www.w3.org/2000/svg"><g fill="none" fill-rule="evenodd"><g transform="translate(1 1)"><path d="m21.269229 59.9255918c-.0618464-.1853569-.1239779-.3704316-.1858244-.5560705-.5446478.1292137-1.1981682.1145432-1.6100029.4195215-.7518477.5566347-1.3925428 1.2746455-2.0215526 1.9762931-1.1534221 1.2867769-1.2132735 2.8277495-.0604214 4.0716433 1.3782925 1.4879329 2.8241315 2.9194406 4.3070214 4.3058081 1.1733727 1.096624 2.6916034 1.1925469 3.8569959.0956407 2.0566084-1.9359491 3.9766986-4.0135254 5.9540752-6.0315732-.0037051-.1176465-.0071252-.2352931-.0105453-.3529397-.3896042.0485257-.9077464-.0434474-1.1448719.170122-.8681305.7828999-1.6427787 1.6673651-2.3658408 2.4223344-.7185019-.5738444-1.2611547-1.00719-1.9349105-1.5452044 1.7567813-1.6320993 3.4083952-3.1663009 5.0158331-4.659312-.4619959-1.0396346-.8732606-1.0314529-1.4461241-.4056973-1.3557769 1.479187-2.7426195 2.9307256-3.9316675 4.1969074-.8533101-.6771026-1.3911178-1.1039593-2.0816891-1.651566 1.7570664-1.6467699 3.4066853-3.1925386 5.1121654-4.7910649-.3961593-.3396798-.6666307-.5718695-1.0844505-.9298875-2.2774887 2.3523671-4.498831 4.6463342-6.6688721 6.8875437-.6632106-.5636879-1.190188-1.0119862-1.7453811-1.4839831.7603979-.794467 1.4030881-1.4664913 2.0460632-2.1385156m-18.85233892 14.6615274.46541596.2951039c1.34979178-1.4464604 2.62833189-2.9682484 4.07445594-4.3131433.98726325-.9183204 1.28481026-1.8908089 1.358912-3.2012845.34001301-6.0171848-1.27939512-12.2152123 1.68695472-17.9835619-4.27538567-1.2822629-7.6316247 1.1462782-7.64502002 5.491866-.01938045 6.1596584-.00627015 12.3190347-.00256506 18.478411.00028501.4110577.04018595.8218332.06184646 1.2326088m19.11369012-.8968788c-2.5414049-2.5038688-4.8790299-4.8065818-6.9766793-6.8731552-3.8165249 3.6301161-7.70401643 7.3282246-11.85912928 11.2805286 1.77758686 1.6490269 3.45599138 3.2393715 5.17287181 4.7879615 1.25488455 1.1321719 3.01651107 1.1609488 4.25743027-.0245449 3.1744047-3.0334195 6.2906681-6.1260855 9.4055065-9.17079m-13.33517905-27.1597121c.99923353.2705589 1.92522035.5763835 2.87600275.7510196.383334.0705315.9279818-.0172097 1.2166936-.2525029 2.5345647-2.0637522 5.4094274-2.9674019 8.6927047-2.9087197 4.7009007.0835093 9.4043665.0014106 14.1066922.0273662 3.5785443.020031 6.4856127 1.517274 9.0301527 4.1929576l-1.7040552 1.4484352c-1.6761244-1.6752646-3.5508986-2.9846116-5.9711756-3.2684305-.8228144-.0962049-1.6533239-.2146979-2.4758533-.0899982-3.9969341.6057247-8.0483045.5803334-12.0520788.0220059-6.4847577-.9042141-11.636539 4.1001381-11.3244567 9.8033165.1641639 3.0004107.0250806 6.0166205.0316358 9.0260593.000855.3997726.0552913.7998274.1108676 1.5471793 1.5410313-1.8741634 3.2923975-3.0128242 4.2500201-5.1265127.763533-1.6845748 2.4046016-3.1081829 3.9416428-4.2801346 1.3067558-.9961871 2.8115912-.279869 3.9781237.6635605 2.2256174-1.0224248 3.3468338-5.3220261 6.4901728-2.8257747 3.6691764 2.9137981 4.6148287 3.4811536 3.3337235 6.5425035 1.6285284 2.1308982 1.5444514 3.128496-.4283651 5.082219-1.4104982 1.3968061-2.8184313 2.7955872-4.2334897 4.1878793-.3363079.3309339-.6432601.7845926-1.0545248.9312982-2.2780586.8119588-3.4545663 2.8548336-5.0736895 4.3848033-2.507204 2.3695768-4.8550893 4.9041974-7.3716986 7.2633356-1.0684901 1.0012654-2.3929163 1.7350753-3.9319526 2.8249283 0 2.4034319-.045031 5.3113053.0538663 8.2146647.0131103.3865127.7090967.9947765 1.1699526 1.0819534 3.2995227.6271663 6.6024654 1.3042688 9.937329 1.6662366 7.2132348.7826177 14.3483778.0437295 21.5621827-1.5714422.0384759-.0087459.0772368.0160812.086072.0541682.1772742.7481983.3226276 1.3615404.5152922 2.175192-2.3034243.4254461-4.5119413.9236807-6.7472489 1.2292232-8.4037079 1.1485348-16.7558296.8424288-25.0358446-1.0424558-.1385132-.031316-.2813016-.0468329-.4189598-.0823808-3.29154253-.8483531-3.47565687-1.0833641-3.47850694-4.4344575-.00228005-2.3038415.02137551-4.6082472-.02935569-6.9112423-.00997523-.449991-.18354432-1.0243997-.49591167-1.3192215-2.32821983-2.1983263-4.74450673-4.305808-7.04565092-6.5300899-.43805531-.4234712-.6837311-1.2393798-.68743619-1.8761383-.04047095-7.0994204.00142504-14.1991228-.01539036-21.2985432-.01197028-4.9781144 1.97224644-7.6484376 6.8113754-9.0494757.13338314-.0383691.25793107-.1077721.67062079-.2841009-.67062079.2841009.08122691-.1447307.71052173.031316" fill="#4a4a4a" stroke="#4a4a4a"/><path d="m21.301709 59.2273923c-.6323355.688489-1.2643907 1.3769781-2.0122059 2.1909097.546006.4835609 1.0642633.9428427 1.7164994 1.520341 2.1341324-2.2961196 4.318717-4.6462894 6.5585189-7.0562901.410906.3667895.6769017.604668 1.0665056.95267-1.6772587 1.6376906-3.2995805 3.221331-5.0275718 4.9084471.679144.5610232 1.2080523.998338 2.0472422 1.6920298 1.1693723-1.2972036 2.5332662-2.7843052 3.8666084-4.2997326.563384-.6410868.9678433-.6494689 1.4221943.4156369-1.5808388 1.5295903-3.2051226 3.1013801-4.9328336 4.7734663.6626068.5511958 1.1962801.9951586 1.9028926 1.5830623.7110972-.7734663 1.4729269-1.6796011 2.326692-2.4816822.2332017-.2188019.74277-.1245754 1.1259272-.17429.0033635.1205289.0067269.2410579.0103707.3615868-1.9446559 2.0674904-3.8329734 4.1959679-5.8555502 6.1793481-1.1461081 1.1237806-2.6392159 1.0255076-3.7931722-.0979839-1.4583518-1.4203338-2.8802658-2.8869138-4.235751-4.4113014-1.1337753-1.2743695-1.0749143-2.8530962.0594216-4.1713996.6186013-.718838 1.2486945-1.4544403 1.988101-2.0247127.4050199-.3124503 1.0477261-.2974203 1.5833614-.4297999.060823.1901872.1219264.3797963.1827494.5696944" fill="#64b608"/><path d="m27.4509804 2.24234549c-10.1159925 0-18.34590507 8.22996851-18.34590507 18.34602991 0 10.1157811 8.22991257 18.3457497 18.34590507 18.3457497s18.3459051-8.2299686 18.3459051-18.3457497c0-10.1160614-8.2299126-18.34602991-18.3459051-18.34602991m0 38.93412511c-11.3523574 0-20.5882353-9.2356605-20.5882353-20.5880952 0-11.35243461 9.2358779-20.5883754 20.5882353-20.5883754s20.5882353 9.23594079 20.5882353 20.5883754c0 11.3524347-9.2358779 20.5880952-20.5882353 20.5880952" fill="#4a4a4a" stroke="#4a4a4a"/><path d="m43.1372549 95.7946593s1.2463006-.5388272 3.3034546-2.59888c.2240915-.2243679.3872325-.4989459.4697128-.7976249l.6098079-2.202076h2.4122435s1.1610912 3.5890252-6.1459902 7.8333652c-.0403304.0232402-.0946097.0031561-.105223-.040455z" fill="#231f20"/></g><rect fill="#fff" height="45.039216" rx="5.852941" stroke="#4a4a4a" stroke-width="3" width="11.705882" x="42.696078" y="48.578431"/></g></svg>

<?xml version="1.0" encoding="UTF-8"?>
<svg width="56px" height="102px" viewBox="0 0 56 102" version="1.1" xmlns="http://www.w3.org/2000/svg" xmlns:xlink="http://www.w3.org/1999/xlink">
    <!-- Generator: Sketch 52.1 (67048) - http://www.bohemiancoding.com/sketch -->
    <title>Group 22</title>
    <desc>Created with Sketch.</desc>
    <g id="Page-1" stroke="none" stroke-width="1" fill="none" fill-rule="evenodd">
        <g id="Hamon_Home" transform="translate(-1018.000000, -3158.000000)">
            <g id="Culture_section" transform="translate(-911.000000, 2967.000000)">
                <g id="Reliability_sec" transform="translate(1833.000000, 186.000000)">
                    <g id="Group-22" transform="translate(97.000000, 6.000000)">
                        <g id="Group-14">
                            <path d="M21.269229,59.9255918 C21.2073826,59.7402349 21.1452511,59.5551602 21.0834046,59.3695213 C20.5387568,59.498735 19.8852364,59.4840645 19.4734017,59.7890428 C18.721554,60.3456775 18.0808589,61.0636883 17.4518491,61.7653359 C16.298427,63.0521128 16.2385756,64.5930854 17.3914277,65.8369792 C18.7697202,67.3249121 20.2155592,68.7564198 21.6984491,70.1427873 C22.8718218,71.2394113 24.3900525,71.3353342 25.555445,70.238428 C27.6120534,68.3024789 29.5321436,66.2249026 31.5095202,64.2068548 C31.5058151,64.0892083 31.502395,63.9715617 31.4989749,63.8539151 C31.1093707,63.9024408 30.5912285,63.8104677 30.354103,64.0240371 C29.4859725,64.806937 28.7113243,65.6914022 27.9882622,66.4463715 C27.2697603,65.8725271 26.7271075,65.4391815 26.0533517,64.9011671 C27.810133,63.2690678 29.4617469,61.7348662 31.0691848,60.2418551 C30.6071889,59.2022205 30.1959242,59.2104022 29.6230607,59.8361578 C28.2672838,61.3153448 26.8804412,62.7668834 25.6913932,64.0330652 C24.8380831,63.3559626 24.3002754,62.9291059 23.6097041,62.3814992 C25.3667705,60.7347293 27.0163894,59.1889606 28.7218695,57.5904343 C28.3257102,57.2507545 28.0552388,57.0185648 27.637419,56.6605468 C25.3599303,59.0129139 23.138588,61.306881 20.9685469,63.5480905 C20.3053363,62.9844026 19.7783589,62.5361043 19.2231658,62.0641074 C19.9835637,61.2696404 20.6262539,60.5976161 21.269229,59.9255918 M2.41689008,74.5871192 L2.88230604,74.8822231 C4.23209782,73.4357627 5.51063793,71.9139747 6.95676198,70.5690798 C7.94402523,69.6507594 8.24157224,68.6782709 8.31567398,67.3677953 C8.65568699,61.3506105 7.03627886,55.152583 10.0026287,49.3842334 C5.72724303,48.1019705 2.371004,50.5305116 2.35760868,54.8760994 C2.33822823,61.0357578 2.35133853,67.1951341 2.35504362,73.3545104 C2.35532863,73.7655681 2.39522957,74.1763436 2.41689008,74.5871192 M21.5305802,73.6902404 C18.9891753,71.1863716 16.6515503,68.8836586 14.5539009,66.8170852 C10.737376,70.4472013 6.84988447,74.1453098 2.69477162,78.0976138 C4.47235848,79.7466407 6.150763,81.3369853 7.86764343,82.8855753 C9.12252798,84.0177472 10.8841545,84.0465241 12.1250737,82.8610304 C15.2994784,79.8276109 18.4157418,76.7349449 21.5305802,73.6902404 M8.19540115,46.5305283 C9.19463468,46.8010872 10.1206215,47.1069118 11.0714039,47.2815479 C11.4547379,47.3520794 11.9993857,47.2643382 12.2880975,47.029045 C14.8226622,44.9652928 17.6975249,44.0616431 20.9808022,44.1203253 C25.6817029,44.2038346 30.3851687,44.1217359 35.0874944,44.1476915 C38.6660387,44.1677225 41.5731071,45.6649655 44.1176471,48.3406491 L42.4135919,49.7890843 C40.7374675,48.1138197 38.8626933,46.8044727 36.4424163,46.5206538 C35.6196019,46.4244489 34.7890924,46.3059559 33.966563,46.4306556 C29.9696289,47.0363803 25.9182585,47.010989 21.9144842,46.4526615 C15.4297265,45.5484474 10.2779452,50.5527996 10.5900275,56.255978 C10.7541914,59.2563887 10.6151081,62.2725985 10.6216633,65.2820373 C10.6225183,65.6818099 10.6769546,66.0818647 10.7325309,66.8292166 C12.2735622,64.9550532 14.0249284,63.8163924 14.982551,61.7027039 C15.746084,60.0181291 17.3871526,58.594521 18.9241938,57.4225693 C20.2309496,56.4263822 21.735785,57.1427003 22.9023175,58.0861298 C25.1279349,57.063705 26.2491513,52.7641037 29.3924903,55.2603551 C33.0616667,58.1741532 34.007319,58.7415087 32.7262138,61.8028586 C34.3547422,63.9337568 34.2706652,64.9313546 32.2978487,66.8850776 C30.8873505,68.2818837 29.4794174,69.6806648 28.064359,71.0729569 C27.7280511,71.4038908 27.4210989,71.8575495 27.0098342,72.0042551 C24.7317756,72.8162139 23.5552679,74.8590887 21.9361447,76.3890584 C19.4289407,78.7586352 17.0810554,81.2932558 14.5644461,83.652394 C13.495956,84.6536594 12.1715298,85.3874693 10.6324935,86.4773223 C10.6324935,88.8807542 10.5874625,91.7886276 10.6863598,94.691987 C10.6994701,95.0784997 11.3954565,95.6867635 11.8563124,95.7739404 C15.1558351,96.4011067 18.4587778,97.0782092 21.7936414,97.440177 C29.0068762,98.2227947 36.1420192,97.4839065 43.3558241,95.8687348 C43.3943,95.8599889 43.4330609,95.884816 43.4418961,95.922903 C43.6191703,96.6711013 43.7645237,97.2844434 43.9571883,98.098095 C41.653764,98.5235411 39.445247,99.0217757 37.2099394,99.3273182 C28.8062315,100.475853 20.4541098,100.169747 12.1740948,98.2848624 C12.0355816,98.2535464 11.8927932,98.2380295 11.755135,98.2024816 C8.46359247,97.3541285 8.27947813,97.1191175 8.27662806,93.7680241 C8.27434801,91.4641826 8.29800357,89.1597769 8.24727237,86.8567818 C8.23729714,86.4067908 8.06372805,85.8323821 7.7513607,85.5375603 C5.42314087,83.339234 3.00685397,81.2317523 0.705709782,79.0074704 C0.267654467,78.5839992 0.0219786815,77.7680906 0.0182735942,77.1313321 C-0.0221973588,70.0319117 0.0196986278,62.9322093 0.0028832318,55.8327889 C-0.00908705008,50.8546745 1.97512967,48.1843513 6.81425863,46.7833132 C6.94764177,46.7449441 7.0721897,46.6755411 7.48487942,46.4992123 C6.81425863,46.7833132 7.56610633,46.3544816 8.19540115,46.5305283" id="Fill-1" stroke="#4A4A4A" fill="#4A4A4A"></path>
                            <path d="M21.301709,59.2273923 C20.6693735,59.9158813 20.0373183,60.6043704 19.2895031,61.418302 C19.8355091,61.9018629 20.3537664,62.3611447 21.0060025,62.938643 C23.1401349,60.6425234 25.3247195,58.2923536 27.5645214,55.8823529 C27.9754274,56.2491424 28.2414231,56.4870209 28.631027,56.8350229 C26.9537683,58.4727135 25.3314465,60.0563539 23.6034552,61.74347 C24.2825992,62.3044932 24.8115075,62.741808 25.6506974,63.4354998 C26.8200697,62.1382962 28.1839636,60.6511946 29.5173058,59.1357672 C30.0806898,58.4946804 30.4851491,58.4862983 30.9395001,59.5514041 C29.3586613,61.0809944 27.7343775,62.6527842 26.0066665,64.3248704 C26.6692733,64.8760662 27.2029466,65.320029 27.9095591,65.9079327 C28.6206563,65.1344664 29.382486,64.2283316 30.2362511,63.4262505 C30.4694528,63.2074486 30.9790211,63.3016751 31.3621783,63.2519605 C31.3655418,63.3724894 31.3689052,63.4930184 31.372549,63.6135473 C29.4278931,65.6810377 27.5395756,67.8095152 25.5169988,69.7928954 C24.3708907,70.916676 22.8777829,70.818403 21.7238266,69.6949115 C20.2654748,68.2745777 18.8435608,66.8079977 17.4880756,65.2836101 C16.3543003,64.0092406 16.4131613,62.4305139 17.5474972,61.1122105 C18.1660985,60.3933725 18.7961917,59.6577702 19.5355982,59.0874978 C19.9406181,58.7750475 20.5833243,58.7900775 21.1189596,58.6576979 C21.1797826,58.8478851 21.240886,59.0374942 21.301709,59.2273923" id="Fill-6" fill="#64B608"></path>
                            <path d="M27.4509804,2.24234549 C17.3349879,2.24234549 9.10507533,10.472314 9.10507533,20.5883754 C9.10507533,30.7041565 17.3349879,38.9341251 27.4509804,38.9341251 C37.5669729,38.9341251 45.7968855,30.7041565 45.7968855,20.5883754 C45.7968855,10.472314 37.5669729,2.24234549 27.4509804,2.24234549 M27.4509804,41.1764706 C16.098623,41.1764706 6.8627451,31.9408101 6.8627451,20.5883754 C6.8627451,9.23594079 16.098623,0 27.4509804,0 C38.8033378,0 48.0392157,9.23594079 48.0392157,20.5883754 C48.0392157,31.9408101 38.8033378,41.1764706 27.4509804,41.1764706" id="Fill-10" stroke="#4A4A4A" fill="#4A4A4A"></path>
                            <path d="M43.1372549,95.7946593 C43.1372549,95.7946593 44.3835555,95.2558321 46.4407095,93.1957793 C46.664801,92.9714114 46.827942,92.6968334 46.9104223,92.3981544 L47.5202302,90.1960784 L49.9324737,90.1960784 C49.9324737,90.1960784 51.0935649,93.7851036 43.7864835,98.0294436 C43.7461531,98.0526838 43.6918738,98.0325997 43.6812605,97.9889886 L43.1372549,95.7946593 Z" id="Fill-12" fill="#231F20"></path>
                        </g>
                        <rect id="Rectangle" stroke="#4A4A4A" stroke-width="3" fill="#FFFFFF" x="41.6960784" y="47.5784314" width="11.7058824" height="45.0392157" rx="5.85294118"></rect>
                    </g>
                </g>
            </g>
        </g>
    </g>
</svg>
